packages/ffe-icons/icons/open/400/sm/vertical_align_top.svg

<svg xmlns="http://www.w3.org/2000/svg" height="20" viewBox="0 -960 960 960" width="20"><path d="M228.292-744Q213-744 202.5-754.289q-10.5-10.29-10.5-25.5Q192-795 202.344-805.5q10.345-10.5 25.637-10.5h503.727Q747-816 757.5-805.711q10.5 10.29 10.5 25.5Q768-765 757.656-754.5 747.311-744 732.019-744H228.292Zm251.919 600Q465-144 454.5-154.35 444-164.7 444-180v-354l-80 79q-11 11-25.5 11T313-455q-11-11-11-25t10.858-24.858L455-647q5.4-5 11.7-7.5 6.3-2.5 13.5-2.5t13.5 2.5Q500-652 505-647l141.213 141.213Q657-495 657-480.5q0 14.5-11 25.5t-25 11.5q-14 .5-25-10.5l-80-80v354q0 15.3-10.289 25.65-10.29 10.35-25.5 10.35Z"/></svg>

<svg xmlns="http://www.w3.org/2000/svg" height="20" viewBox="0 -960 960 960" width="20"><path d="M228.29-744q-15.29 0-25.79-10.29t-10.5-25.5q0-15.21 10.34-25.71 10.35-10.5 25.64-10.5h503.73q15.29 0 25.79 10.29t10.5 25.5q0 15.21-10.34 25.71-10.35 10.5-25.64 10.5H228.29Zm251.92 600q-15.21 0-25.71-10.35T444-180v-354l-80 79q-11 11-25.5 11T313-455q-11-11-11-25t10.86-24.86L455-647q5.4-5 11.7-7.5 6.3-2.5 13.5-2.5t13.5 2.5Q500-652 505-647l141.21 141.21Q657-495 657-480.5T646-455q-11 11-25 11.5T596-454l-80-80v354q0 15.3-10.29 25.65Q495.42-144 480.21-144Z"/></svg>
